;FLAVOR:UltiGCode
;TIME:34772
;MATERIAL:69336
;MATERIAL2:0
;NOZZLE_DIAMETER:0.4
;MINX:3.295
;MINY:44.057
;MINZ:0.27
;MAXX:219.705
;MAXY:200.467
;MAXZ:53.07
;TARGET_MACHINE.NAME:Ultimaker 2 Extended+
;Generated with Cura_SteamEngine 5.10.0
G0 F3000 Y50 ;avoid prime blob
M82 ;absolute extrusion mode
G92 E0
G92 E0
G10
;LAYER_COUNT:353
;LAYER:0
M107
G0 F9000 X12.006 Y44.805 Z0.27
;TYPE:SKIRT
G11
G1 F1800 X14.13 Y44.293 E0.23596
G1 X16.509 Y44.057 E0.49416
G1 X207.025 Y44.087 E21.06988
G1 X209.206 Y44.356 E21.30722
G1 X211.203 Y44.887 E21.53039
G1 X213.604 Y46.14 E21.82288
G1 X214.773 Y46.992 E21.97911
G1 X216.89 Y49.094 E22.3013
G1 X217.854 Y50.556 E22.49044
G1 X219.02 Y53.01 E22.78386
G1 X219.482 Y54.965 E23.00082
G1 X219.705 Y57.269 E23.25081
G1 X219.658 Y188.114 E37.38207
G1 X219.434 Y189.839 E37.56994
G1 X218.856 Y191.894 E37.80049
G1 X218.256 Y193.242 E37.95984
G1 X217.012 Y195.29 E38.21864
G1 X215.659 Y196.753 E38.43385
G1 X213.791 Y198.251 E38.69245
G1 X212.238 Y199.145 E38.88598
G1 X211.048 Y199.646 E39.02543
G1 X207.892 Y200.379 E39.37535
G1 X206.492 Y200.467 E39.52685
G1 X15.646 Y200.419 E60.13821
G1 X13.798 Y200.172 E60.33957
G1 X11.791 Y199.638 E60.56387
G1 X9.297 Y198.318 E60.86862
G1 X8.178 Y197.497 E61.01851
G1 X6.212 Y195.583 E61.31485
G1 X4.998 Y193.712 E61.55572
G1 X4.021 Y191.67 E61.8002
G1 X3.54 Y189.694 E62.01984
G1 X3.295 Y187.255 E62.28458
G1 X3.347 Y56.375 E76.41962
G1 X3.617 Y54.462 E76.62827
G1 X4.211 Y52.382 E76.86189
G1 X5.379 Y50.156 E77.13338
G1 X6.154 Y49.079 E77.27669
G1 X8.331 Y46.875 E77.61126
G1 X9.736 Y45.937 E77.79371
G1 X12.006 Y44.805 E78.06766
G0 F9000 X12.142 Y45.184
G1 F1800 X14.224 Y44.682 E78.29896
G1 X16.509 Y44.457 E78.54693
G1 X206.977 Y44.484 E99.11748
G1 X209.103 Y44.743 E99.34878
G1 X211.058 Y45.263 E99.56726
G1 X213.419 Y46.495 E99.85488
G1 X214.491 Y47.276 E99.99812
G1 X216.581 Y49.351 E100.3162
G1 X217.493 Y50.728 E100.49457
G1 X218.64 Y53.143 E100.78331
G1 X219.084 Y55.004 E100.98994
G1 X219.305 Y57.269 E101.23572
G1 X219.261 Y188.062 E115.36137
G1 X219.037 Y189.787 E115.54923
G1 X218.49 Y191.732 E115.76744
G1 X217.914 Y193.034 E115.9212
G1 X216.691 Y195.047 E116.17559
G1 X215.365 Y196.481 E116.38652
G1 X213.591 Y197.904 E116.63214
G1 X212.038 Y198.798 E116.82567
G1 X210.957 Y199.257 E116.9525
G1 X207.867 Y199.98 E117.29524
G1 X206.492 Y200.067 E117.44403
G1 X15.698 Y200.022 E138.04979
G1 X13.901 Y199.785 E138.24554
G1 X11.938 Y199.263 E138.46491
G1 X9.534 Y197.995 E138.75845
G1 X8.415 Y197.174 E138.90834
G1 X6.526 Y195.331 E139.19336
G1 X5.334 Y193.494 E139.42987
G1 X4.401 Y191.537 E139.66401
G1 X3.929 Y189.599 E139.87944
G1 X3.695 Y187.255 E140.13385
G1 X3.743 Y56.43 E154.26295
G1 X4.002 Y54.572 E154.46555
G1 X4.586 Y52.527 E154.69524
G1 X5.704 Y50.39 E154.95571
G1 X6.479 Y49.313 E155.09902
G1 X8.588 Y47.184 E155.42266
G1 X9.914 Y46.295 E155.59508
G1 X12.142 Y45.184 E155.86396
G0 F9000 X12.28 Y45.562
G1 F1800 X14.264 Y45.08 E156.08446
G1 X16.509 Y44.857 E156.32812
G1 X206.929 Y44.881 E176.89348
G1 X209 Y45.13 E177.11876
G1 X210.915 Y45.639 E177.33276
G1 X213.185 Y46.819 E177.60906
G1 X214.209 Y47.56 E177.74557
G1 X216.269 Y49.605 E178.05906
G1 X217.159 Y50.949 E178.23316
G1 X218.261 Y53.277 E178.51133
G1 X218.686 Y55.043 E178.7075
G1 X218.905 Y57.269 E178.94907
G1 X218.864 Y188.01 E193.0691
G1 X218.64 Y189.735 E193.25696
G1 X218.124 Y191.571 E193.46293
G1 X217.572 Y192.826 E193.611
G1 X216.37 Y194.804 E193.86098
G1 X215.071 Y196.209 E194.06763
G1 X213.391 Y197.557 E194.30026
G1 X211.838 Y198.451 E194.49379
G1 X210.802 Y198.888 E194.61523
G1 X207.842 Y199.581 E194.94355
G1 X206.492 Y199.667 E195.08965
G1 X15.75 Y199.625 E215.68978
G1 X14.004 Y199.398 E215.87994
G1 X12.082 Y198.887 E216.09472
G1 X9.771 Y197.672 E216.3767
G1 X8.652 Y196.851 E216.5266
G1 X6.838 Y195.077 E216.80062
G1 X5.67 Y193.276 E217.03245
G1 X4.781 Y191.405 E217.25617
G1 X4.318 Y189.504 E217.46748
G1 X4.095 Y187.255 E217.71156
G1 X4.139 Y56.485 E231.83472
G1 X4.387 Y54.682 E232.03128
G1 X4.96 Y52.676 E232.25659
G1 X6.029 Y50.624 E232.50648
G1 X6.804 Y49.547 E232.64978
G1 X8.845 Y47.493 E232.96251
G1 X10.093 Y46.653 E233.12498
G1 X12.28 Y45.562 E233.38893
G0 F9000 X12.419 Y45.94
G1 F1800 X14.358 Y45.469 E233.60443
G1 X16.509 Y45.257 E233.83787
G1 X206.882 Y45.278 E254.39815
G1 X208.897 Y45.517 E254.6173
G1 X210.772 Y46.015 E254.82682
G1 X212.952 Y47.144 E255.09196
G1 X213.927 Y47.844 E255.22158
G1 X215.958 Y49.86 E255.53065
G1 X216.797 Y51.12 E255.69413
G1 X217.882 Y53.412 E255.968
G1 X218.288 Y55.083 E256.15372
G1 X218.505 Y57.269 E256.39097
G1 X218.467 Y187.958 E270.50538
G1 X218.243 Y189.683 E270.69325
G1 X217.739 Y191.462 E270.89294
G1 X217.23 Y192.618 E271.02936
G1 X216.049 Y194.561 E271.27492
G1 X214.777 Y195.937 E271.4773
G1 X213.191 Y197.21 E271.69694
G1 X211.638 Y198.104 E271.89047
G1 X210.647 Y198.519 E272.0065
G1 X207.816 Y199.182 E272.32052
G1 X206.492 Y199.267 E272.46381
G1 X15.801 Y199.228 E293.05844
G1 X14.107 Y199.011 E293.24289
G1 X12.226 Y198.511 E293.45309
G1 X10.008 Y197.349 E293.72351
G1 X8.889 Y196.528 E293.87341
G1 X7.148 Y194.82 E294.13681
G1 X6.031 Y193.104 E294.35794
G1 X5.161 Y191.273 E294.57688
G1 X4.707 Y189.409 E294.78407
G1 X4.495 Y187.255 E295.01783
G1 X4.535 Y56.539 E309.13516
G1 X4.772 Y54.792 E309.32556
G1 X5.335 Y52.822 E309.54684
G1 X6.355 Y50.856 E309.78604
G1 X7.088 Y49.829 E309.92231
G1 X9.103 Y47.801 E310.23107
G1 X10.272 Y47.011 E310.38345
G1 X12.419 Y45.94 E310.64257
G0 F9000 X12.558 Y46.318
G1 F1800 X14.452 Y45.858 E310.85307
G1 X16.509 Y45.657 E311.07628
G1 X206.836 Y45.675 E331.6316
G1 X208.794 Y45.904 E331.84451
G1 X210.63 Y46.392 E332.04968
G1 X212.768 Y47.499 E332.3097
G1 X213.645 Y48.128 E332.42626
G1 X215.65 Y50.118 E332.73135
G1 X216.435 Y51.291 E332.88378
G1 X217.503 Y53.547 E333.15335
G1 X217.899 Y55.177 E333.33451
G1 X218.105 Y57.269 E333.56154
G1 X218.07 Y187.906 E347.67034
G1 X217.846 Y189.631 E347.8582
G1 X217.372 Y191.302 E348.04579
G1 X216.888 Y192.41 E348.17637
G1 X215.728 Y194.318 E348.41753
G1 X214.483 Y195.665 E348.61563
G1 X212.991 Y196.863 E348.82228
G1 X211.438 Y197.757 E349.01581
G1 X210.555 Y198.13 E349.11934
G1 X207.79 Y198.783 E349.42617
G1 X206.492 Y198.867 E349.56665
G1 X15.851 Y198.831 E370.15588
G1 X14.21 Y198.624 E370.33451
G1 X12.371 Y198.135 E370.54002
G1 X10.245 Y197.026 E370.79899
G1 X9.126 Y196.205 E370.94888
G1 X7.46 Y194.565 E371.20136
G1 X6.392 Y192.932 E371.41209
G1 X5.541 Y191.141 E371.62625
G1 X5.096 Y189.314 E371.82933
G1 X4.895 Y187.255 E372.05276
G1 X4.932 Y56.592 E386.16437
G1 X5.157 Y54.902 E386.3485
G1 X5.71 Y52.968 E386.56574
G1 X6.682 Y51.087 E386.79441
G1 X7.372 Y50.111 E386.9235
G1 X9.359 Y48.111 E387.22798
G1 X10.451 Y47.369 E387.37056
G1 X12.558 Y46.318 E387.62486
G0 F9000 X12.697 Y46.696
G1 F1800 X14.546 Y46.247 E387.83035
G1 X16.509 Y46.057 E388.04335
G1 X206.79 Y46.072 E408.59369
G1 X208.691 Y46.291 E408.80036
G1 X210.49 Y46.769 E409.00139
G1 X212.536 Y47.825 E409.25006
G1 X213.363 Y48.412 E409.35959
G1 X215.339 Y50.373 E409.66025
G1 X216.073 Y51.462 E409.80208
G1 X217.123 Y53.681 E410.06721
G1 X217.51 Y55.272 E410.24405
G1 X217.705 Y57.269 E410.46075
G1 X217.673 Y187.856 E424.56414
G1 X217.461 Y189.523 E424.74563
G1 X217.005 Y191.143 E424.92739
G1 X216.546 Y192.202 E425.05204
G1 X215.406 Y194.078 E425.28913
G1 X214.232 Y195.354 E425.47639
G1 X212.791 Y196.516 E425.67631
G1 X211.238 Y197.41 E425.86984
G1 X210.4 Y197.761 E425.96796
G1 X207.764 Y198.384 E426.26049
G1 X206.492 Y198.467 E426.39816
G1 X15.9 Y198.434 E446.9821
G1 X14.313 Y198.237 E447.15481
G1 X12.514 Y197.759 E447.35584
G1 X10.482 Y196.703 E447.60316
G1 X9.363 Y195.882 E447.75306
G1 X7.77 Y194.309 E447.99484
G1 X6.753 Y192.76 E448.19497
G1 X5.921 Y191.009 E448.40434
G1 X5.485 Y189.219 E448.60331
G1 X5.295 Y187.255 E448.81641
G1 X5.329 Y56.644 E462.9224
G1 X5.542 Y55.012 E463.10015
G1 X6.084 Y53.116 E463.31312
G1 X7.009 Y51.318 E463.53149
G1 X7.699 Y50.342 E463.66058
G1 X9.616 Y48.419 E463.95384
G1 X10.63 Y47.727 E464.08642
G1 X12.697 Y46.696 E464.33588
G0 F9000 X12.836 Y47.074
G1 F1800 X14.64 Y46.636 E464.53638
G1 X16.509 Y46.457 E464.73915
G1 X206.745 Y46.469 E485.28464
G1 X208.588 Y46.678 E485.48496
G1 X210.346 Y47.145 E485.68141
G1 X212.306 Y48.153 E485.91944
G1 X213.081 Y48.696 E486.02164
G1 X215.029 Y50.629 E486.31803
G1 X215.711 Y51.633 E486.44911
G1 X216.746 Y53.819 E486.71032
G1 X217.112 Y55.311 E486.87624
G1 X217.305 Y57.269 E487.08872
G1 X217.276 Y187.807 E501.18683
G1 X217.076 Y189.415 E501.36183
G1 X216.638 Y190.984 E501.53776
G1 X216.179 Y192.043 E501.66241
G1 X215.086 Y193.835 E501.88911
G1 X213.938 Y195.083 E502.07225
G1 X212.591 Y196.17 E502.25918
G1 X211.083 Y197.041 E502.44726
G1 X210.245 Y197.392 E502.54538
G1 X207.738 Y197.985 E502.82361
G1 X206.492 Y198.067 E502.95847
G1 X15.948 Y198.037 E523.53722
G1 X14.416 Y197.85 E523.7039
G1 X12.657 Y197.383 E523.90046
G1 X10.719 Y196.38 E524.13613
G1 X9.6 Y195.559 E524.28602
G1 X8.08 Y194.053 E524.51711
G1 X7.114 Y192.588 E524.70663
G1 X6.301 Y190.877 E524.91122
G1 X5.874 Y189.124 E525.10608
G1 X5.695 Y187.255 E525.30886
G1 X5.726 Y56.695 E539.40934
G1 X5.927 Y55.122 E539.5806
G1 X6.458 Y53.263 E539.7894
G1 X7.365 Y51.501 E540.00343
G1 X8.025 Y50.574 E540.12633
G1 X9.843 Y48.749 E540.40454
G1 X10.809 Y48.085 E540.53114
G1 X12.836 Y47.074 E540.77577
G0 F9000 X12.973 Y47.453
G1 F1800 X14.734 Y47.025 E540.9715
G1 X16.509 Y46.857 E541.16405
G1 X206.701 Y46.867 E561.70479
G1 X208.485 Y47.065 E561.89864
G1 X210.204 Y47.522 E562.09074
G1 X212.076 Y48.481 E562.3179
G1 X212.851 Y49.024 E562.4201
G1 X214.719 Y50.884 E562.7048
G1 X215.349 Y51.804 E562.82523
G1 X216.368 Y53.957 E563.08248
G1 X216.714 Y55.351 E563.2376
G1 X216.905 Y57.269 E563.44577
G1 X216.879 Y187.759 E577.53869
G1 X216.69 Y189.308 E577.70722
G1 X216.27 Y190.826 E577.87732
G1 X215.837 Y191.835 E577.99591
G1 X214.764 Y193.595 E578.21853
G1 X213.644 Y194.812 E578.39715
G1 X212.39 Y195.824 E578.57118
G1 X210.928 Y196.672 E578.75372
G1 X210.09 Y197.023 E578.85184
G1 X207.711 Y197.586 E579.11587
G1 X206.492 Y197.667 E579.24781
G1 X15.996 Y197.64 E599.82138
G1 X14.519 Y197.463 E599.98204
G1 X12.801 Y197.007 E600.17401
G1 X10.956 Y196.057 E600.39813
G1 X9.837 Y195.236 E600.54802
G1 X8.389 Y193.796 E600.76857
G1 X7.475 Y192.416 E600.94734
G1 X6.681 Y190.745 E601.14714
G1 X6.263 Y189.029 E601.33789
G1 X6.095 Y187.255 E601.53034
G1 X6.123 Y56.745 E615.62542
G1 X6.312 Y55.232 E615.79009
G1 X6.832 Y53.41 E615.99472
G1 X7.721 Y51.684 E616.20441
G1 X8.35 Y50.807 E616.32096
G1 X10.07 Y49.079 E616.58428
G1 X11.036 Y48.415 E616.71088
G1 X12.973 Y47.453 E616.94445
G0 F9000 X13.11 Y47.832
G1 F1800 X14.829 Y47.414 E617.13551
G1 X16.509 Y47.257 E617.31775
G1 X206.658 Y47.265 E637.85384
G1 X208.382 Y47.452 E638.04112
G1 X210.063 Y47.899 E638.22898
G1 X211.846 Y48.809 E638.44517
G1 X212.621 Y49.352 E638.54737
G1 X214.41 Y51.141 E638.82062
G1 X214.987 Y51.975 E638.93014
G1 X215.989 Y54.093 E639.18319
G1 X216.316 Y55.391 E639.32776
G1 X216.505 Y57.269 E639.53161
G1 X216.482 Y187.712 E653.61945
G1 X216.304 Y189.202 E653.78151
G1 X215.902 Y190.668 E653.94569
G1 X215.469 Y191.677 E654.06427
G1 X214.443 Y193.353 E654.2765
G1 X213.392 Y194.501 E654.4446
G1 X212.189 Y195.478 E654.61197
G1 X210.773 Y196.303 E654.78896
G1 X209.935 Y196.654 E654.88708
G1 X207.684 Y197.187 E655.13691
G1 X206.492 Y197.267 E655.26594
G1 X16.043 Y197.243 E675.83443
G1 X14.622 Y197.076 E675.98896
G1 X12.945 Y196.631 E676.17634
G1 X11.139 Y195.701 E676.39573
G1 X10.119 Y194.952 E676.5324
G1 X8.701 Y193.542 E676.74837
G1 X7.809 Y192.195 E676.92285
G1 X7.06 Y190.611 E677.11208
G1 X6.652 Y188.934 E677.29848
G1 X6.495 Y187.255 E677.4806
G1 X6.52 Y56.793 E691.5705
G1 X6.697 Y55.342 E691.72837
G1 X7.207 Y53.555 E691.92907
G1 X8.047 Y51.916 E692.12798
G1 X8.634 Y51.089 E692.23751
G1 X10.326 Y49.389 E692.49655
G1 X11.263 Y48.745 E692.61934
G1 X13.11 Y47.832 E692.84185
G0 F9000 X13.251 Y48.209
G1 F1800 X14.867 Y47.812 E693.02157
G1 X16.509 Y47.657 E693.1997
G1 X206.616 Y47.663 E713.73125
G1 X208.279 Y47.839 E713.91186
G1 X209.924 Y48.276 E714.09568
G1 X211.616 Y49.137 E714.30072
G1 X212.391 Y49.68 E714.40292
G1 X214.082 Y51.371 E714.66119
G1 X214.625 Y52.146 E714.76339
G1 X215.61 Y54.228 E715.01214
G1 X215.918 Y55.432 E715.14636
G1 X216.105 Y57.269 E715.34578
G1 X216.085 Y187.666 E729.42866
G1 X215.918 Y189.097 E729.58426
G1 X215.534 Y190.51 E729.74239
G1 X215.101 Y191.519 E729.86098
G1 X214.122 Y193.112 E730.06291
G1 X213.097 Y194.231 E730.2268
G1 X211.987 Y195.133 E730.38127
G1 X210.618 Y195.934 E730.55257
G1 X209.78 Y196.285 E730.6507
G1 X207.657 Y196.788 E730.88633
G1 X206.492 Y196.867 E731.01244
G1 X16.089 Y196.846 E751.57596
G1 X14.725 Y196.689 E751.72424
G1 X13.087 Y196.254 E751.90728
G1 X11.375 Y195.378 E752.11498
G1 X10.401 Y194.668 E752.24515
G1 X9.012 Y193.287 E752.45669
G1 X8.171 Y192.024 E752.62057
G1 X7.438 Y190.474 E752.80574
G1 X7.05 Y188.896 E752.98124
G1 X6.895 Y187.255 E753.15926
G1 X6.917 Y56.84 E767.24408
G1 X7.082 Y55.452 E767.39504
G1 X7.582 Y53.7 E767.59181
G1 X8.375 Y52.146 E767.78023
G1 X8.918 Y51.371 E767.88243
G1 X10.582 Y49.699 E768.13719
G1 X11.49 Y49.075 E768.25618
G1 X13.251 Y48.209 E768.46812
G0 F9000 X13.391 Y48.586
G1 F1800 X14.905 Y48.21 E768.6366
G1 X16.509 Y48.057 E768.81062
G1 X206.574 Y48.061 E789.33764
G1 X208.237 Y48.237 E789.51825
G1 X209.778 Y48.651 E789.69057
G1 X211.386 Y49.465 E789.88522
G1 X212.161 Y50.008 E789.98742
G1 X213.754 Y51.601 E790.23073
G1 X214.297 Y52.376 E790.33293
G1 X215.231 Y54.362 E790.56995
G1 X215.53 Y55.531 E790.70027
G1 X215.705 Y57.269 E790.88892
G1 X215.688 Y187.621 E804.96694
G1 X215.532 Y188.993 E805.11607
G1 X215.166 Y190.354 E805.26828
G1 X214.76 Y191.309 E805.38035
G1 X213.799 Y192.872 E805.57851
G1 X212.802 Y193.961 E805.73797
G1 X211.784 Y194.788 E805.87962
G1 X210.463 Y195.565 E806.04514
G1 X209.625 Y195.916 E806.14326
G1 X207.63 Y196.389 E806.36469
G1 X206.492 Y196.467 E806.48788
G1 X16.133 Y196.448 E827.04666
G1 X14.828 Y196.302 E827.18848
G1 X13.226 Y195.877 E827.36748
G1 X11.609 Y195.054 E827.56343
G1 X10.683 Y194.384 E827.68687
G1 X9.32 Y193.029 E827.89444
G1 X8.533 Y191.853 E828.04726
G1 X7.816 Y190.337 E828.22838
G1 X7.448 Y188.858 E828.39298
G1 X7.295 Y187.255 E828.56689
G1 X7.314 Y56.886 E842.64675
G1 X7.467 Y55.562 E842.79069
G1 X7.957 Y53.847 E842.98332
G1 X8.703 Y52.376 E843.16145
G1 X9.246 Y51.601 E843.26365
G1 X10.839 Y50.008 E843.50696
G1 X11.667 Y49.434 E843.61577
G1 X13.391 Y48.586 E843.82327
G0 F9000 X13.529 Y48.964
G1 F1800 X14.943 Y48.608 E843.98074
G1 X16.509 Y48.457 E844.15066
G1 X206.532 Y48.459 E864.67314
G1 X208.195 Y48.635 E864.85375
G1 X209.635 Y49.027 E865.01493
G1 X211.156 Y49.793 E865.19885
G1 X211.931 Y50.336 E865.30105
G1 X213.426 Y51.831 E865.52939
G1 X213.969 Y52.606 E865.63159
G1 X214.852 Y54.496 E865.85689
G1 X215.132 Y55.572 E865.97696
G1 X215.305 Y57.269 E866.16119
G1 X215.29 Y187.577 E880.23445
G1 X215.145 Y188.89 E880.37712
G1 X214.797 Y190.199 E880.5234
G1 X214.419 Y191.099 E880.62883
G1 X213.476 Y192.632 E880.82321
G1 X212.549 Y193.651 E880.97199
G1 X211.58 Y194.444 E881.10721
G1 X210.308 Y195.196 E881.2668
G1 X209.47 Y195.547 E881.36492
G1 X207.602 Y195.99 E881.57226
G1 X206.492 Y196.067 E881.69243
G1 X16.176 Y196.05 E902.24656
G1 X14.931 Y195.915 E902.38181
G1 X13.367 Y195.5 E902.55657
G1 X11.842 Y194.729 E902.74112
G1 X10.965 Y194.1 E902.85768
G1 X9.631 Y192.774 E903.06082
G1 X8.895 Y191.682 E903.20304
G1 X8.195 Y190.201 E903.37995
G1 X7.846 Y188.82 E903.53379
G1 X7.695 Y187.255 E903.70359
G1 X7.712 Y56.93 E917.77869
G1 X7.852 Y55.672 E917.9154
G1 X8.332 Y53.991 E918.1042
G1 X9.031 Y52.606 E918.27175
G1 X9.574 Y51.831 E918.37395
G1 X11.069 Y50.336 E918.60229
G1 X11.844 Y49.793 E918.70449
G1 X13.529 Y48.964 E918.9073
G0 F9000 X13.665 Y49.343
G1 F1800 X14.982 Y49.006 E919.05412
G1 X16.509 Y48.857 E919.21982
G1 X206.491 Y48.857 E939.73788
G1 X208.09 Y49.021 E939.91147
G1 X209.49 Y49.402 E940.06817
G1 X210.926 Y50.121 E940.24162
G1 X211.701 Y50.664 E940.34382
G1 X213.098 Y52.061 E940.55719
G1 X213.641 Y52.836 E940.65939
