;FLAVOR:UltiGCode
;TIME:18879
;MATERIAL:43052
;MATERIAL2:0
;NOZZLE_DIAMETER:0.4
;MINX:22.763
;MINY:61.377
;MINZ:0.27
;MAXX:200.235
;MAXY:198.787
;MAXZ:8.67
;TARGET_MACHINE.NAME:Ultimaker 2 Extended+
;Generated with Cura_SteamEngine 5.10.0
G0 F3000 Y50 ;avoid prime blob
M82 ;absolute extrusion mode
G92 E0
G92 E0
G10
;LAYER_COUNT:57
;LAYER:0
M107
G0 F9000 X62.516 Y65.634 Z0.27
;TYPE:SKIRT
G11
G1 F1800 X65.201 Y63.687 E0.3582
G1 X68.267 Y62.35 E0.71944
G1 X70.762 Y61.697 E0.99797
G1 X73.676 Y61.393 E1.31439
G1 X148.991 Y61.377 E9.44841
G1 X152.36 Y61.681 E9.81374
G1 X155.513 Y62.638 E10.16961
G1 X157.916 Y63.812 E10.45845
G1 X160.567 Y65.682 E10.80882
G1 X162.657 Y67.848 E11.13389
G1 X164.446 Y70.376 E11.46837
G1 X165.615 Y73.017 E11.78029
G1 X166.413 Y76.009 E12.11472
G1 X166.681 Y78.598 E12.39583
G1 X166.705 Y160.837 E21.27764
G1 X166.761 Y161.46 E21.34519
G1 X167.035 Y162.209 E21.43133
G1 X167.565 Y162.825 E21.51909
G1 X168.263 Y163.219 E21.60566
G1 X168.668 Y163.327 E21.65092
G1 X169.231 Y163.377 E21.71197
G1 X183.296 Y163.416 E23.23099
G1 X185.526 Y163.657 E23.47324
G1 X188.888 Y164.593 E23.85014
G1 X191.456 Y165.783 E24.15582
G1 X193.87 Y167.536 E24.47802
G1 X196.188 Y169.896 E24.83528
G1 X197.933 Y172.361 E25.16145
G1 X199.044 Y174.827 E25.45356
G1 X199.937 Y178.141 E25.82424
G1 X200.235 Y181.07 E26.14221
G1 X199.884 Y184.309 E26.49407
G1 X198.93 Y187.617 E26.86589
G1 X197.744 Y190.129 E27.1659
G1 X196.068 Y192.424 E27.47282
G1 X193.695 Y194.77 E27.83321
G1 X191.294 Y196.476 E28.15131
G1 X188 Y197.894 E28.53862
G1 X185.857 Y198.445 E28.77759
G1 X182.487 Y198.787 E29.14342
G1 X153.149 Y198.737 E32.31193
G1 X151.547 Y198.524 E32.48647
G1 X149.142 Y197.788 E32.7581
G1 X147.347 Y196.918 E32.97353
G1 X145.487 Y195.47 E33.22811
G1 X144.131 Y194.107 E33.43575
G1 X142.726 Y191.875 E33.72059
G1 X142.219 Y190.73 E33.85583
G1 X141.424 Y187.636 E34.20084
G1 X141.336 Y186.619 E34.31108
G1 X141.32 Y171.262 E35.96964
G1 X81.681 Y171.262 E42.41065
G1 X81.622 Y186.99 E44.10929
G1 X81.301 Y189.118 E44.34171
G1 X80.963 Y190.26 E44.47034
G1 X79.809 Y192.685 E44.76038
G1 X78.723 Y194.28 E44.96878
G1 X76.668 Y196.17 E45.27031
G1 X75.029 Y197.235 E45.48141
G1 X73.224 Y198.088 E45.69702
G1 X71.074 Y198.589 E45.93544
G1 X68.963 Y198.787 E46.16443
G1 X39.659 Y198.739 E49.32927
G1 X36.7 Y198.363 E49.65141
G1 X34.865 Y197.856 E49.85701
G1 X31.077 Y196.056 E50.30996
G1 X28.922 Y194.547 E50.59408
G1 X26.644 Y192.069 E50.95761
G1 X25.036 Y189.664 E51.27006
G1 X23.979 Y187.395 E51.54039
G1 X23.063 Y184.024 E51.91766
G1 X22.763 Y181.087 E52.23651
G1 X23.236 Y177.236 E52.65554
G1 X23.886 Y175.024 E52.90454
G1 X25.424 Y171.839 E53.28653
G1 X27.031 Y169.609 E53.58339
G1 X28.988 Y167.552 E53.89002
G1 X31.991 Y165.581 E54.27796
G1 X34.785 Y164.343 E54.60801
G1 X37.158 Y163.716 E54.87309
G1 X40.302 Y163.387 E55.21449
G1 X53.756 Y163.377 E56.66753
G1 X54.373 Y163.322 E56.73443
G1 X55.145 Y163.033 E56.82345
G1 X55.433 Y162.831 E56.86145
G1 X55.958 Y162.212 E56.9491
G1 X56.244 Y161.427 E57.03934
G1 X56.295 Y160.851 E57.10179
G1 X56.342 Y78.243 E66.02345
G1 X56.704 Y75.414 E66.33148
G1 X57.564 Y72.548 E66.65464
G1 X58.726 Y70.084 E66.94886
G1 X60.767 Y67.35 E67.31733
G1 X62.516 Y65.634 E67.58196
G0 F9000 X62.751 Y65.958
G1 F1800 X65.4 Y64.037 E67.93536
G1 X68.427 Y62.717 E68.29201
G1 X70.804 Y62.095 E68.55737
G1 X73.718 Y61.791 E68.87379
G1 X148.991 Y61.777 E77.00327
G1 X152.28 Y62.075 E77.35994
G1 X155.397 Y63.021 E77.71174
G1 X157.685 Y64.139 E77.98676
G1 X160.309 Y65.99 E78.33357
G1 X162.33 Y68.079 E78.64748
G1 X164.096 Y70.575 E78.9777
G1 X165.249 Y73.179 E79.28527
G1 X166.015 Y76.05 E79.60618
G1 X166.283 Y78.639 E79.88729
G1 X166.305 Y160.851 E88.76618
G1 X166.366 Y161.533 E88.84013
G1 X166.48 Y161.964 E88.88828
G1 X166.695 Y162.428 E88.94351
G1 X167.307 Y163.138 E89.04475
G1 X168.112 Y163.592 E89.14456
G1 X168.597 Y163.722 E89.19879
G1 X169.218 Y163.777 E89.26612
G1 X183.253 Y163.814 E90.78191
G1 X185.483 Y164.055 E91.02415
G1 X188.72 Y164.956 E91.38703
G1 X191.251 Y166.129 E91.68831
G1 X193.635 Y167.86 E92.0065
G1 X195.862 Y170.127 E92.3497
G1 X197.583 Y172.558 E92.67138
G1 X198.679 Y174.991 E92.95958
G1 X199.539 Y178.182 E93.3165
G1 X199.833 Y181.068 E93.6298
G1 X199.499 Y184.199 E93.96987
G1 X198.568 Y187.446 E94.33468
G1 X197.397 Y189.925 E94.63078
G1 X195.745 Y192.188 E94.93337
G1 X193.463 Y194.444 E95.27994
G1 X191.096 Y196.126 E95.59354
G1 X187.9 Y197.507 E95.96956
G1 X185.816 Y198.047 E96.20206
G1 X182.488 Y198.387 E96.56336
G1 X153.202 Y198.34 E99.72625
G1 X151.6 Y198.127 E99.90079
G1 X149.316 Y197.428 E100.15875
G1 X147.562 Y196.578 E100.36925
G1 X145.733 Y195.154 E100.6196
G1 X144.446 Y193.857 E100.81693
G1 X143.065 Y191.662 E101.09701
G1 X142.606 Y190.63 E101.21899
G1 X141.823 Y187.602 E101.55677
G1 X141.735 Y186.585 E101.66702
G1 X141.72 Y171.204 E103.32817
G1 X141.591 Y170.941 E103.3598
G1 X141.387 Y170.862 E103.38343
G1 X81.611 Y170.862 E109.83924
G1 X81.4 Y170.942 E109.86361
G1 X81.281 Y171.202 E109.89449
G1 X81.226 Y186.931 E111.59323
G1 X80.917 Y189.004 E111.81959
G1 X80.579 Y190.146 E111.94821
G1 X79.478 Y192.46 E112.22497
G1 X78.417 Y194.018 E112.42855
G1 X76.45 Y195.835 E112.71775
G1 X74.858 Y196.873 E112.923
G1 X73.088 Y197.71 E113.13446
G1 X71.036 Y198.191 E113.36208
G1 X68.964 Y198.387 E113.58686
G1 X39.709 Y198.342 E116.7464
G1 X36.807 Y197.977 E117.06229
G1 X34.972 Y197.47 E117.26789
G1 X31.306 Y195.728 E117.70625
G1 X29.186 Y194.244 E117.98573
G1 X26.976 Y191.846 E118.33792
G1 X25.399 Y189.495 E118.64366
G1 X24.342 Y187.226 E118.914
G1 X23.461 Y183.983 E119.27694
G1 X23.166 Y181.09 E119.591
G1 X23.62 Y177.349 E119.99799
G1 X24.27 Y175.137 E120.24699
G1 X25.784 Y172.013 E120.62192
G1 X27.321 Y169.885 E120.90542
G1 X29.247 Y167.86 E121.20724
G1 X32.153 Y165.947 E121.58299
G1 X34.947 Y164.709 E121.91304
G1 X37.2 Y164.114 E122.1647
G1 X40.344 Y163.785 E122.50611
G1 X53.77 Y163.777 E123.95612
G1 X54.465 Y163.715 E124.03147
G1 X55.334 Y163.39 E124.13168
G1 X55.704 Y163.129 E124.18058
G1 X56.298 Y162.43 E124.27965
G1 X56.515 Y161.96 E124.33555
G1 X56.639 Y161.497 E124.38732
G1 X56.695 Y160.865 E124.45584
G1 X56.739 Y78.294 E133.37351
G1 X57.101 Y75.465 E133.68154
G1 X57.926 Y72.719 E133.9912
G1 X59.071 Y70.291 E134.28112
G1 X61.048 Y67.635 E134.63871
G1 X62.751 Y65.958 E134.89684
G0 F9000 X63.032 Y66.243
G1 F1800 X65.597 Y64.388 E135.23871
G1 X68.587 Y63.084 E135.591
G1 X70.846 Y62.493 E135.84319
G1 X73.76 Y62.189 E136.15961
G1 X148.991 Y62.177 E144.28456
G1 X152.2 Y62.469 E144.63256
G1 X155.281 Y63.404 E144.98029
G1 X157.454 Y64.466 E145.2415
G1 X160.048 Y66.296 E145.58436
G1 X162.003 Y68.31 E145.88749
G1 X163.746 Y70.774 E146.21345
G1 X164.883 Y73.341 E146.51667
G1 X165.617 Y76.091 E146.82407
G1 X165.885 Y78.68 E147.10517
G1 X165.905 Y160.865 E155.98115
G1 X165.972 Y161.609 E156.06183
G1 X166.102 Y162.102 E156.11689
G1 X166.347 Y162.629 E156.17966
G1 X166.625 Y163.023 E156.23174
G1 X167.05 Y163.447 E156.29657
G1 X167.448 Y163.726 E156.34907
G1 X167.974 Y163.969 E156.41164
G1 X168.526 Y164.117 E156.47336
G1 X169.205 Y164.177 E156.54698
G1 X183.21 Y164.212 E158.05953
G1 X185.44 Y164.453 E158.30177
G1 X188.552 Y165.319 E158.65064
G1 X191.046 Y166.475 E158.94752
G1 X193.4 Y168.184 E159.26168
G1 X195.536 Y170.358 E159.59084
G1 X197.233 Y172.755 E159.90803
G1 X198.314 Y175.155 E160.1923
G1 X199.141 Y178.223 E160.53548
G1 X199.431 Y181.067 E160.84422
G1 X199.114 Y184.089 E161.17239
G1 X198.183 Y187.336 E161.53719
G1 X197.052 Y189.719 E161.82207
G1 X195.422 Y191.952 E162.12065
G1 X193.231 Y194.118 E162.45339
G1 X190.898 Y195.776 E162.7625
G1 X187.799 Y197.12 E163.12732
G1 X185.775 Y197.649 E163.35325
G1 X182.489 Y197.987 E163.71001
G1 X153.255 Y197.943 E166.86729
G1 X151.653 Y197.73 E167.04182
G1 X149.491 Y197.068 E167.28602
G1 X147.773 Y196.235 E167.49223
G1 X146.017 Y194.872 E167.7323
G1 X144.761 Y193.606 E167.9249
G1 X143.43 Y191.498 E168.19415
G1 X142.993 Y190.529 E168.30895
G1 X142.222 Y187.568 E168.6394
G1 X142.134 Y186.551 E168.74965
G1 X142.12 Y171.132 E170.4149
G1 X141.997 Y170.8 E170.45314
G1 X141.828 Y170.604 E170.48109
G1 X141.463 Y170.462 E170.52339
G1 X81.538 Y170.462 E176.99529
G1 X81.161 Y170.605 E177.03883
G1 X81.005 Y170.791 E177.06505
G1 X80.881 Y171.129 E177.10393
G1 X80.83 Y186.873 E178.80429
G1 X80.533 Y188.89 E179.02448
G1 X80.195 Y190.032 E179.1531
G1 X79.147 Y192.235 E179.41658
G1 X78.111 Y193.757 E179.61542
G1 X76.231 Y195.5 E179.8923
G1 X74.687 Y196.511 E180.09162
G1 X72.953 Y197.331 E180.29877
G1 X70.998 Y197.793 E180.51573
G1 X68.965 Y197.987 E180.73629
G1 X39.758 Y197.945 E183.89065
G1 X36.914 Y197.591 E184.20017
G1 X35.079 Y197.084 E184.40578
G1 X31.535 Y195.4 E184.82954
G1 X29.45 Y193.941 E185.10438
G1 X27.308 Y191.623 E185.44524
G1 X25.762 Y189.326 E185.74427
G1 X24.705 Y187.057 E186.01461
G1 X23.859 Y183.942 E186.36322
G1 X23.568 Y181.093 E186.67251
G1 X24.004 Y177.462 E187.06748
G1 X24.654 Y175.25 E187.31647
G1 X26.109 Y172.247 E187.67686
G1 X27.611 Y170.161 E187.95447
G1 X29.507 Y168.168 E188.25156
G1 X32.315 Y166.313 E188.61502
G1 X35.109 Y165.075 E188.94507
G1 X37.242 Y164.512 E189.18332
G1 X40.386 Y164.183 E189.52473
G1 X53.784 Y164.177 E190.97171
G1 X54.534 Y164.11 E191.05303
G1 X55.006 Y163.984 E191.10579
G1 X55.535 Y163.738 E191.1688
G1 X55.959 Y163.439 E191.22483
G1 X56.366 Y163.031 E191.28707
G1 X56.645 Y162.633 E191.33957
G1 X56.892 Y162.098 E191.40321
G1 X57.034 Y161.568 E191.46247
G1 X57.095 Y160.879 E191.53717
G1 X57.136 Y78.344 E200.45095
G1 X57.484 Y75.58 E200.75182
G1 X58.288 Y72.89 E201.05504
G1 X59.418 Y70.495 E201.34104
G1 X61.329 Y67.92 E201.68736
G1 X63.032 Y66.243 E201.94549
G0 F9000 X63.313 Y66.528
G1 F1800 X65.794 Y64.739 E202.27583
G1 X68.747 Y63.451 E202.62378
G1 X70.888 Y62.891 E202.86278
G1 X73.802 Y62.587 E203.1792
G1 X148.991 Y62.577 E211.29961
G1 X152.12 Y62.863 E211.63895
G1 X155.165 Y63.787 E211.98262
G1 X157.223 Y64.793 E212.23002
G1 X159.787 Y66.602 E212.56892
G1 X161.676 Y68.541 E212.86128
G1 X163.396 Y70.973 E213.18298
G1 X164.517 Y73.503 E213.48184
G1 X165.219 Y76.132 E213.77572
G1 X165.487 Y78.721 E214.05683
G1 X165.505 Y160.879 E222.92989
G1 X165.577 Y161.682 E223.01696
G1 X165.724 Y162.237 E223.07897
G1 X166 Y162.832 E223.14981
G1 X166.317 Y163.281 E223.20917
G1 X166.791 Y163.754 E223.28149
G1 X167.248 Y164.074 E223.34174
G1 X167.836 Y164.346 E223.41171
G1 X168.455 Y164.512 E223.48092
G1 X169.192 Y164.577 E223.56083
G1 X183.167 Y164.61 E225.07013
G1 X185.397 Y164.851 E225.31238
G1 X188.384 Y165.682 E225.64722
G1 X190.841 Y166.821 E225.93971
G1 X193.165 Y168.508 E226.24985
G1 X195.21 Y170.589 E226.56496
G1 X196.883 Y172.952 E226.87765
G1 X197.949 Y175.319 E227.15801
G1 X198.743 Y178.264 E227.48743
G1 X199.029 Y181.066 E227.79162
G1 X198.716 Y184.047 E228.11534
G1 X197.822 Y187.164 E228.46555
G1 X196.707 Y189.513 E228.74637
G1 X195.099 Y191.716 E229.04093
G1 X192.999 Y193.792 E229.35985
G1 X190.701 Y195.425 E229.66431
G1 X187.697 Y196.733 E230.01816
G1 X185.734 Y197.251 E230.23743
G1 X182.49 Y197.587 E230.58965
G1 X153.308 Y197.546 E233.74131
G1 X151.706 Y197.333 E233.91585
G1 X149.666 Y196.708 E234.14628
G1 X147.983 Y195.892 E234.34828
G1 X146.301 Y194.59 E234.578
G1 X145.075 Y193.355 E234.76594
G1 X143.794 Y191.331 E235.02464
G1 X143.38 Y190.427 E235.13202
G1 X142.621 Y187.534 E235.45504
G1 X142.533 Y186.517 E235.56528
G1 X142.52 Y171.06 E237.23464
G1 X142.347 Y170.594 E237.28833
G1 X142.066 Y170.267 E237.33489
G1 X141.538 Y170.062 E237.39606
G1 X81.465 Y170.062 E243.88394
G1 X80.923 Y170.267 E243.94653
G1 X80.652 Y170.59 E243.99206
G1 X80.481 Y171.056 E244.04567
G1 X80.434 Y186.815 E245.74765
G1 X80.149 Y188.776 E245.96167
G1 X79.811 Y189.918 E246.09029
G1 X78.786 Y192.062 E246.34694
G1 X77.807 Y193.493 E246.5342
G1 X76.011 Y195.166 E246.79928
G1 X74.516 Y196.149 E246.99252
G1 X72.818 Y196.952 E247.19538
G1 X70.96 Y197.395 E247.40166
G1 X68.966 Y197.587 E247.61801
G1 X39.807 Y197.548 E250.76719
G1 X37.021 Y197.205 E251.07035
G1 X35.186 Y196.698 E251.27595
G1 X31.764 Y195.072 E251.68513
G1 X29.717 Y193.639 E251.95499
G1 X27.602 Y191.351 E252.2915
G1 X26.125 Y189.157 E252.57714
G1 X25.068 Y186.888 E252.84748
G1 X24.257 Y183.901 E253.18175
G1 X23.97 Y181.095 E253.48638
G1 X24.388 Y177.575 E253.86921
G1 X25.038 Y175.363 E254.11821
G1 X26.434 Y172.481 E254.46406
G1 X27.936 Y170.395 E254.74167
G1 X29.765 Y168.477 E255.0279
G1 X32.478 Y166.678 E255.37947
G1 X35.212 Y165.462 E255.70263
G1 X37.284 Y164.91 E255.93421
G1 X40.428 Y164.581 E256.27562
G1 X53.798 Y164.577 E257.71958
G1 X54.603 Y164.505 E257.80686
G1 X55.145 Y164.36 E257.86746
G1 X55.738 Y164.085 E257.93805
G1 X56.217 Y163.747 E258.00137
G1 X56.673 Y163.29 E258.07109
G1 X56.993 Y162.833 E258.13134
G1 X57.269 Y162.236 E258.20238
G1 X57.429 Y161.639 E258.26913
G1 X57.495 Y160.893 E258.35001
G1 X57.533 Y78.393 E267.26001
G1 X57.867 Y75.694 E267.55373
G1 X58.65 Y73.061 E267.8504
G1 X59.763 Y70.702 E268.1321
G1 X61.61 Y68.205 E268.46754
G1 X63.313 Y66.528 E268.72567
G0 F9000 X63.594 Y66.813
G1 F1800 X65.991 Y65.09 E269.04448
G1 X68.907 Y63.818 E269.38807
G1 X70.93 Y63.289 E269.6139
G1 X73.844 Y62.985 E269.93032
G1 X148.991 Y62.977 E278.0462
G1 X152.041 Y63.257 E278.37698
G1 X155.049 Y64.17 E278.71648
G1 X156.992 Y65.12 E278.95007
G1 X159.527 Y66.908 E279.28509
G1 X161.349 Y68.772 E279.5666
G1 X163.046 Y71.172 E279.88405
G1 X164.151 Y73.665 E280.17856
G1 X164.821 Y76.173 E280.45892
G1 X165.089 Y78.762 E280.74003
G1 X165.105 Y160.893 E289.61018
G1 X165.182 Y161.757 E289.70386
G1 X165.346 Y162.374 E289.77281
G1 X165.651 Y163.03 E289.85094
G1 X166.012 Y163.542 E289.9186
G1 X166.532 Y164.061 E289.99795
G1 X167.048 Y164.422 E290.06596
G1 X167.698 Y164.723 E290.14332
G1 X168.384 Y164.907 E290.22003
G1 X169.179 Y164.977 E290.30622
G1 X183.124 Y165.008 E291.81228
G1 X185.354 Y165.249 E292.05452
G1 X188.216 Y166.045 E292.37535
G1 X190.636 Y167.167 E292.66344
G1 X192.93 Y168.832 E292.96957
G1 X194.884 Y170.82 E293.27062
G1 X196.533 Y173.149 E293.57882
G1 X197.584 Y175.483 E293.85527
G1 X198.345 Y178.305 E294.17093
G1 X198.627 Y181.065 E294.47056
G1 X198.318 Y184.005 E294.78983
G1 X197.461 Y186.992 E295.12544
G1 X196.362 Y189.307 E295.4022
G1 X194.776 Y191.48 E295.69275
G1 X192.767 Y193.466 E295.99784
G1 X190.504 Y195.074 E296.29766
G1 X187.594 Y196.346 E296.64066
G1 X185.692 Y196.853 E296.85324
G1 X182.491 Y197.187 E297.20083
G1 X153.361 Y197.149 E300.34687
G1 X151.759 Y196.936 E300.52141
G1 X149.841 Y196.348 E300.73807
G1 X148.194 Y195.549 E300.93577
G1 X146.585 Y194.308 E301.15523
G1 X145.389 Y193.103 E301.33859
G1 X144.158 Y191.164 E301.58664
G1 X143.744 Y190.26 E301.69402
G1 X143.02 Y187.5 E302.00218
G1 X142.932 Y186.483 E302.11243
G1 X142.92 Y170.988 E303.78589
G1 X142.697 Y170.388 E303.85502
G1 X142.304 Y169.93 E303.9202
G1 X141.73 Y169.708 E303.98667
G1 X141.17 Y169.662 E304.04735
G1 X81.392 Y169.662 E310.50338
G1 X80.684 Y169.93 E310.58513
G1 X80.299 Y170.389 E310.64984
G1 X80.081 Y170.983 E310.71817
G1 X80.038 Y186.758 E312.42188
G1 X79.765 Y188.662 E312.62961
G1 X79.427 Y189.804 E312.75824
G1 X78.456 Y191.836 E313.00146
G1 X77.503 Y193.229 E313.18374
G1 X75.738 Y194.873 E313.44424
G1 X74.345 Y195.787 E313.62418
G1 X72.684 Y196.573 E313.82264
G1 X70.921 Y196.997 E314.01847
G1 X68.966 Y197.187 E314.23061
G1 X39.855 Y197.151 E317.3746
G1 X37.128 Y196.819 E317.67129
G1 X35.293 Y196.312 E317.8769
G1 X31.993 Y194.744 E318.27148
G1 X29.981 Y193.335 E318.53676
G1 X27.933 Y191.127 E318.86201
G1 X26.488 Y188.988 E319.1408
G1 X25.431 Y186.719 E319.41113
G1 X24.655 Y183.86 E319.73108
G1 X24.372 Y181.097 E320.03104
G1 X24.772 Y177.687 E320.40185
G1 X25.398 Y175.537 E320.64369
G1 X26.759 Y172.715 E320.98206
G1 X28.261 Y170.629 E321.25967
G1 X30.021 Y168.787 E321.53482
G1 X32.641 Y167.043 E321.87474
G1 X35.315 Y165.849 E322.19101
G1 X37.387 Y165.297 E322.42259
G1 X40.469 Y164.979 E322.75721
G1 X53.812 Y164.977 E324.19826
G1 X54.674 Y164.9 E324.29173
G1 X55.286 Y164.736 E324.36015
G1 X55.936 Y164.434 E324.43756
G1 X56.478 Y164.052 E324.50917
G1 X56.98 Y163.549 E324.58592
G1 X57.341 Y163.033 E324.65394
