;FLAVOR:UltiGCode
;TIME:10270
;MATERIAL:21699
;MATERIAL2:0
;NOZZLE_DIAMETER:0.4
;MINX:33.619
;MINY:30.887
;MINZ:0.27
;MAXX:167.11
;MAXY:113.697
;MAXZ:13.02
;TARGET_MACHINE.NAME:Ultimaker 2 Extended+
;Generated with Cura_SteamEngine 5.10.0
G0 F3000 Y50 ;avoid prime blob
M82 ;absolute extrusion mode
G92 E0
G92 E0
G10
;LAYER_COUNT:86
;LAYER:0
M107
G0 F9000 X35.783 Y34.296 Z0.27
;TYPE:SKIRT
G11
G1 F1800 X38.474 Y32.037 E0.37946
G1 X41.778 Y30.887 E0.75729
G1 X85.527 Y30.887 E5.48218
G1 X88.058 Y31.565 E5.76516
G1 X90.6 Y33.031 E6.08208
G1 X92.884 Y35.748 E6.46542
G1 X94.029 Y39.038 E6.84165
G1 X94.029 Y103.985 E13.85592
G1 X93.285 Y106.431 E14.13204
G1 X91.854 Y108.915 E14.44165
G1 X89.46 Y110.918 E14.77876
G1 X87.038 Y111.971 E15.06399
G1 X84.302 Y112.297 E15.36157
G1 X41.971 Y112.18 E19.93333
G1 X39.978 Y111.827 E20.15193
G1 X37.006 Y110.123 E20.52192
G1 X34.81 Y107.496 E20.89171
G1 X33.619 Y104.218 E21.26837
G1 X33.619 Y39.197 E28.29064
G1 X34.359 Y36.765 E28.56519
G1 X35.783 Y34.296 E28.87301
G0 F9000 X36.096 Y34.555
G1 F1800 X38.674 Y32.391 E29.23652
G1 X41.846 Y31.287 E29.59925
G1 X85.475 Y31.287 E34.31119
G1 X87.901 Y31.937 E34.58244
G1 X90.341 Y33.344 E34.88663
G1 X92.529 Y35.947 E35.25388
G1 X93.629 Y39.107 E35.61524
G1 X93.629 Y103.925 E42.61559
G1 X92.916 Y106.269 E42.88019
G1 X91.542 Y108.654 E43.17746
G1 X89.246 Y110.575 E43.50077
G1 X86.932 Y111.581 E43.77328
G1 X84.303 Y111.897 E44.05925
G1 X42.041 Y111.786 E48.62356
G1 X40.116 Y111.445 E48.8347
G1 X37.268 Y109.812 E49.18926
G1 X35.162 Y107.293 E49.54387
G1 X34.019 Y104.147 E49.90536
G1 X34.019 Y39.257 E56.91348
G1 X34.728 Y36.927 E57.17652
G1 X36.096 Y34.555 E57.47224
G0 F9000 X36.409 Y34.814
G1 F1800 X38.874 Y32.745 E57.81981
G1 X41.914 Y31.687 E58.16745
G1 X85.423 Y31.687 E62.86642
G1 X87.744 Y32.309 E63.12593
G1 X90.082 Y33.657 E63.4174
G1 X92.175 Y36.147 E63.7687
G1 X93.229 Y39.175 E64.11497
G1 X93.229 Y103.865 E71.10149
G1 X92.547 Y106.107 E71.35458
G1 X91.23 Y108.393 E71.63951
G1 X89.032 Y110.232 E71.94902
G1 X86.826 Y111.191 E72.20881
G1 X84.304 Y111.497 E72.48318
G1 X42.111 Y111.392 E77.04004
G1 X40.254 Y111.063 E77.24372
G1 X37.53 Y109.501 E77.58285
G1 X35.514 Y107.09 E77.92227
G1 X34.419 Y104.076 E78.2686
G1 X34.419 Y39.317 E85.26257
G1 X35.097 Y37.089 E85.51409
G1 X36.409 Y34.814 E85.79772
G0 F9000 X36.722 Y35.073
G1 F1800 X39.073 Y33.1 E86.12919
G1 X41.983 Y32.087 E86.46197
G1 X85.372 Y32.087 E91.14798
G1 X87.586 Y32.68 E91.39552
G1 X89.823 Y33.97 E91.67441
G1 X91.821 Y36.347 E92.00977
G1 X92.829 Y39.243 E92.34094
G1 X92.829 Y103.805 E99.31364
G1 X92.178 Y105.945 E99.55522
G1 X90.918 Y108.132 E99.82781
G1 X88.818 Y109.889 E100.12352
G1 X86.72 Y110.801 E100.37059
G1 X84.305 Y111.097 E100.63336
G1 X42.181 Y110.998 E105.18276
G1 X40.392 Y110.681 E105.37899
G1 X37.792 Y109.19 E105.70268
G1 X35.866 Y106.887 E106.02692
G1 X34.819 Y104.005 E106.35808
G1 X34.819 Y39.377 E113.3379
G1 X35.466 Y37.251 E113.57791
G1 X36.722 Y35.073 E113.84944
G0 F9000 X37.035 Y35.332
G1 F1800 X39.273 Y33.454 E114.16497
G1 X42.051 Y32.487 E114.48265
G1 X85.32 Y32.487 E119.1557
G1 X87.429 Y33.052 E119.39151
G1 X89.564 Y34.283 E119.65767
G1 X91.467 Y36.547 E119.97709
G1 X92.429 Y39.311 E120.29316
G1 X92.429 Y103.745 E127.25203
G1 X91.809 Y105.783 E127.4821
G1 X90.606 Y107.871 E127.74235
G1 X88.604 Y109.546 E128.02426
G1 X86.614 Y110.411 E128.25861
G1 X84.306 Y110.697 E128.50978
G1 X42.251 Y110.604 E133.05173
G1 X40.53 Y110.299 E133.24049
G1 X38.054 Y108.879 E133.54876
G1 X36.218 Y106.684 E133.85781
G1 X35.219 Y103.934 E134.1738
G1 X35.219 Y39.437 E141.13948
G1 X35.835 Y37.413 E141.36797
G1 X37.035 Y35.332 E141.62741
G0 F9000 X37.348 Y35.591
G1 F1800 X39.473 Y33.808 E141.92699
G1 X42.119 Y32.887 E142.22958
G1 X85.268 Y32.887 E146.88967
G1 X87.272 Y33.424 E147.11374
G1 X89.305 Y34.596 E147.36717
G1 X91.113 Y36.747 E147.67065
G1 X92.029 Y39.379 E147.97162
G1 X92.029 Y103.685 E154.91667
G1 X91.44 Y105.621 E155.13522
G1 X90.294 Y107.61 E155.38314
G1 X88.39 Y109.203 E155.65125
G1 X86.508 Y110.021 E155.87288
G1 X84.307 Y110.297 E156.11245
G1 X42.321 Y110.21 E160.64694
G1 X40.668 Y109.917 E160.82825
G1 X38.316 Y108.568 E161.12108
G1 X36.57 Y106.481 E161.41495
G1 X35.619 Y103.863 E161.71578
G1 X35.619 Y39.497 E168.6673
G1 X36.204 Y37.575 E168.88428
G1 X37.348 Y35.591 E169.13162
G0 F9000 X37.661 Y35.85
G1 F1800 X39.673 Y34.162 E169.41526
G1 X42.187 Y33.287 E169.70275
G1 X85.216 Y33.287 E174.34988
G1 X87.115 Y33.796 E174.56221
G1 X89.046 Y34.909 E174.80292
G1 X90.759 Y36.947 E175.09045
G1 X91.629 Y39.447 E175.37633
G1 X91.629 Y103.625 E182.30756
G1 X91.071 Y105.459 E182.5146
G1 X89.982 Y107.349 E182.75017
G1 X88.176 Y108.86 E183.00449
G1 X86.402 Y109.631 E183.21339
G1 X84.308 Y109.897 E183.44136
G1 X42.391 Y109.816 E187.9684
G1 X40.806 Y109.535 E188.14225
G1 X38.578 Y108.257 E188.41965
G1 X36.922 Y106.278 E188.69834
G1 X36.019 Y103.792 E188.98399
G1 X36.019 Y39.557 E195.92137
G1 X36.573 Y37.737 E196.12684
G1 X37.661 Y35.85 E196.36208
G0 F9000 X37.974 Y36.109
G1 F1800 X39.873 Y34.516 E196.62978
G1 X42.255 Y33.687 E196.90217
G1 X85.165 Y33.687 E201.53645
G1 X86.957 Y34.167 E201.73681
G1 X88.787 Y35.222 E201.96494
G1 X90.404 Y37.146 E202.23637
G1 X91.229 Y39.516 E202.5074
G1 X91.229 Y103.565 E209.42469
G1 X90.702 Y105.297 E209.62021
G1 X89.67 Y107.088 E209.84345
G1 X87.962 Y108.517 E210.08396
G1 X86.296 Y109.241 E210.28015
G1 X84.309 Y109.497 E210.49652
G1 X42.461 Y109.422 E215.01611
G1 X40.944 Y109.153 E215.1825
G1 X38.84 Y107.946 E215.44447
G1 X37.274 Y106.075 E215.70798
G1 X36.419 Y103.721 E215.97846
G1 X36.419 Y39.617 E222.90169
G1 X36.942 Y37.899 E223.09564
G1 X37.974 Y36.109 E223.31879
G0 F9000 X38.285 Y36.37
G1 F1800 X40.073 Y34.87 E223.57085
G1 X42.323 Y34.087 E223.82814
G1 X85.113 Y34.087 E228.44946
G1 X86.8 Y34.539 E228.63808
G1 X88.528 Y35.535 E228.85349
G1 X90.05 Y37.346 E229.10898
G1 X90.829 Y39.584 E229.3649
G1 X90.829 Y103.505 E236.26837
G1 X90.333 Y105.135 E236.45238
G1 X89.358 Y106.827 E236.66329
G1 X87.748 Y108.174 E236.89
G1 X86.19 Y108.851 E237.07346
G1 X84.31 Y109.097 E237.27823
G1 X42.531 Y109.028 E241.79037
G1 X41.082 Y108.771 E241.9493
G1 X39.102 Y107.635 E242.19584
G1 X37.626 Y105.872 E242.44416
G1 X36.819 Y103.65 E242.69947
G1 X36.819 Y39.677 E249.60856
G1 X37.312 Y38.057 E249.79144
G1 X38.285 Y36.37 E250.00177
G0 F9000 X38.598 Y36.629
G1 F1800 X40.272 Y35.225 E250.23773
G1 X42.392 Y34.487 E250.48017
G1 X85.061 Y34.487 E255.08842
G1 X86.643 Y34.911 E255.26531
G1 X88.269 Y35.848 E255.46798
G1 X89.696 Y37.546 E255.70753
G1 X90.429 Y39.652 E255.94836
G1 X90.429 Y103.445 E262.838
G1 X89.964 Y104.973 E263.0105
G1 X89.046 Y106.566 E263.20907
G1 X87.534 Y107.831 E263.42198
G1 X86.084 Y108.461 E263.59272
G1 X84.311 Y108.697 E263.78589
G1 X42.601 Y108.634 E268.29058
G1 X41.22 Y108.389 E268.44205
G1 X39.364 Y107.324 E268.67316
G1 X37.978 Y105.669 E268.9063
G1 X37.219 Y103.579 E269.14644
G1 X37.219 Y39.737 E276.04138
G1 X37.681 Y38.219 E276.21275
G1 X38.598 Y36.629 E276.41098
G0 F9000 X38.909 Y36.89
G1 F1800 X40.472 Y35.579 E276.6313
G1 X42.46 Y34.887 E276.85864
G1 X85.01 Y34.887 E281.45404
G1 X86.485 Y35.282 E281.61895
G1 X88.01 Y36.161 E281.80905
G1 X89.342 Y37.746 E282.03265
G1 X90.029 Y39.72 E282.25839
G1 X90.029 Y103.385 E289.13421
G1 X89.595 Y104.811 E289.29519
G1 X88.734 Y106.305 E289.48142
G1 X87.32 Y107.488 E289.68053
G1 X85.974 Y108.073 E289.83903
G1 X84.312 Y108.297 E290.02015
G1 X42.671 Y108.24 E294.51739
G1 X41.358 Y108.007 E294.6614
G1 X39.626 Y107.013 E294.87708
G1 X38.33 Y105.466 E295.09503
G1 X37.619 Y103.508 E295.32001
G1 X37.619 Y39.797 E302.2008
G1 X38.051 Y38.377 E302.3611
G1 X38.909 Y36.89 E302.54651
G0 F9000 X39.222 Y37.149
G1 F1800 X40.672 Y35.933 E302.75089
G1 X42.528 Y35.287 E302.96313
G1 X84.958 Y35.287 E307.54557
G1 X86.328 Y35.654 E307.69875
G1 X87.751 Y36.474 E307.87612
G1 X88.988 Y37.946 E308.08378
G1 X89.629 Y39.788 E308.29441
G1 X89.629 Y103.325 E315.15641
G1 X89.226 Y104.649 E315.30588
G1 X88.422 Y106.044 E315.47977
G1 X87.107 Y107.144 E315.66493
G1 X85.863 Y107.685 E315.81144
G1 X84.312 Y107.897 E315.9805
G1 X42.741 Y107.846 E320.47017
G1 X41.496 Y107.625 E320.60673
G1 X39.888 Y106.702 E320.80697
G1 X38.682 Y105.263 E321.00975
G1 X38.019 Y103.437 E321.21955
G1 X38.019 Y39.858 E328.08609
G1 X38.421 Y38.538 E328.23511
G1 X39.222 Y37.149 E328.40828
G0 F9000 X39.533 Y37.41
G1 F1800 X40.872 Y36.287 E328.59702
G1 X42.596 Y35.687 E328.79416
G1 X84.906 Y35.687 E333.36364
G1 X86.171 Y36.026 E333.50508
G1 X87.492 Y36.787 E333.66973
G1 X88.634 Y38.146 E333.86145
G1 X89.229 Y39.856 E334.05699
G1 X89.229 Y103.265 E340.90516
G1 X88.857 Y104.487 E341.04311
G1 X88.11 Y105.783 E341.20467
G1 X86.893 Y106.801 E341.37602
G1 X85.754 Y107.296 E341.51015
G1 X84.312 Y107.497 E341.66739
G1 X42.811 Y107.452 E346.1495
G1 X41.634 Y107.243 E346.27861
G1 X40.15 Y106.391 E346.46342
G1 X39.034 Y105.06 E346.65101
G1 X38.419 Y103.366 E346.84564
G1 X38.419 Y39.918 E353.69803
G1 X38.791 Y38.696 E353.83598
G1 X39.533 Y37.41 E353.99633
G0 F9000 X39.844 Y37.671
G1 F1800 X41.072 Y36.641 E354.16943
G1 X42.664 Y36.087 E354.35148
G1 X84.854 Y36.087 E358.908
G1 X86.014 Y36.398 E359.0377
G1 X87.233 Y37.1 E359.18963
G1 X88.279 Y38.345 E359.36524
G1 X88.829 Y39.925 E359.54593
G1 X88.829 Y103.205 E366.38017
G1 X88.487 Y104.329 E366.50705
G1 X87.8 Y105.52 E366.65555
G1 X86.68 Y106.457 E366.81325
G1 X85.643 Y106.908 E366.93538
G1 X84.312 Y107.097 E367.08057
G1 X42.881 Y107.058 E371.55512
G1 X41.772 Y106.861 E371.67677
G1 X40.41 Y106.079 E371.84639
G1 X39.386 Y104.858 E372.01849
G1 X38.819 Y103.296 E372.19796
G1 X38.819 Y39.978 E379.0363
G1 X39.161 Y38.854 E379.16319
G1 X39.844 Y37.671 E379.31072
G0 F9000 X40.155 Y37.932
G1 F1800 X41.272 Y36.995 E379.46818
G1 X42.732 Y36.487 E379.63513
G1 X84.803 Y36.487 E384.1788
G1 X85.856 Y36.769 E384.29653
G1 X86.974 Y37.413 E384.43587
G1 X87.925 Y38.545 E384.59555
G1 X88.429 Y39.993 E384.76113
G1 X88.429 Y103.144 E391.58144
G1 X88.116 Y104.172 E391.6975
G1 X87.49 Y105.257 E391.83278
G1 X86.466 Y106.114 E391.97699
G1 X85.534 Y106.519 E392.08674
G1 X84.312 Y106.697 E392.22011
G1 X42.951 Y106.664 E396.6871
G1 X41.91 Y106.479 E396.80129
G1 X40.67 Y105.767 E396.95572
G1 X39.738 Y104.656 E397.11233
G1 X39.219 Y103.226 E397.27663
G1 X39.219 Y40.039 E404.10083
G1 X39.532 Y39.011 E404.21688
G1 X40.155 Y37.932 E404.35144
G0 F9000 X40.466 Y38.193
G1 F1800 X41.471 Y37.35 E404.49311
G1 X42.801 Y36.887 E404.64521
G1 X84.751 Y36.887 E409.17581
G1 X85.699 Y37.141 E409.2818
G1 X86.715 Y37.726 E409.40842
G1 X87.57 Y38.744 E409.552
G1 X88.029 Y40.062 E409.70273
G1 X88.029 Y103.083 E416.50899
G1 X87.745 Y104.015 E416.61422
G1 X87.18 Y104.994 E416.7363
G1 X86.252 Y105.771 E416.86701
G1 X85.425 Y106.13 E416.96438
G1 X84.312 Y106.297 E417.08593
G1 X43.021 Y106.27 E421.54536
G1 X42.048 Y106.097 E421.65209
G1 X40.93 Y105.455 E421.79133
G1 X40.09 Y104.454 E421.93246
G1 X39.619 Y103.156 E422.08158
G1 X39.619 Y40.1 E428.89163
G1 X39.903 Y39.168 E428.99686
G1 X40.466 Y38.193 E429.11845
G0 F9000 X40.777 Y38.454
G1 F1800 X41.671 Y37.704 E429.24448
G1 X42.869 Y37.287 E429.38148
G1 X84.699 Y37.287 E433.89912
G1 X85.542 Y37.513 E433.99338
G1 X86.456 Y38.039 E434.10727
G1 X87.215 Y38.943 E434.23475
G1 X87.629 Y40.131 E434.37062
G1 X87.629 Y103.022 E441.16285
G1 X87.374 Y103.858 E441.25724
G1 X86.87 Y104.731 E441.36611
G1 X86.038 Y105.428 E441.48333
G1 X85.313 Y105.743 E441.5687
G1 X84.312 Y105.897 E441.67808
G1 X43.091 Y105.876 E446.12995
G1 X42.186 Y105.715 E446.22923
G1 X41.19 Y105.143 E446.35327
G1 X40.442 Y104.252 E446.47891
G1 X40.019 Y103.086 E446.61287
G1 X40.019 Y40.161 E453.40877
G1 X40.274 Y39.325 E453.50317
G1 X40.777 Y38.454 E453.6118
G0 F9000 X41.088 Y38.715
G1 F1800 X41.871 Y38.058 E453.72218
G1 X42.937 Y37.687 E453.84409
G1 X84.648 Y37.687 E458.34887
G1 X85.384 Y37.884 E458.43116
G1 X86.197 Y38.352 E458.53247
G1 X86.86 Y39.142 E458.64386
G1 X87.229 Y40.2 E458.76487
G1 X87.229 Y102.961 E465.54306
G1 X87.003 Y103.701 E465.62662
G1 X86.56 Y104.468 E465.72228
G1 X85.825 Y105.084 E465.82586
G1 X85.2 Y105.356 E465.89947
G1 X84.312 Y105.497 E465.99658
G1 X43.161 Y105.482 E470.44088
G1 X42.324 Y105.333 E470.5327
G1 X41.45 Y104.831 E470.64156
G1 X40.794 Y104.05 E470.75171
G1 X40.419 Y103.016 E470.8705
G1 X40.419 Y40.222 E477.65225
G1 X40.645 Y39.482 E477.73582
G1 X41.088 Y38.715 E477.83148
G0 F9000 X41.71 Y39.237
G1 F1800 X42.271 Y38.766 E477.91059
G1 X43.073 Y38.487 E478.00229
G1 X84.547 Y38.487 E482.48149
G1 X85.072 Y38.627 E482.54017
G1 X85.677 Y38.976 E482.6156
G1 X86.15 Y39.54 E482.6951
G1 X86.429 Y40.338 E482.7864
G1 X86.429 Y102.843 E489.53694
G1 X86.288 Y103.34 E489.59273
G1 X85.938 Y103.946 E489.66831
G1 X85.401 Y104.397 E489.74405
G1 X85.019 Y104.575 E489.78956
G1 X84.312 Y104.697 E489.86705
G1 X43.301 Y104.694 E494.29623
G1 X42.6 Y104.569 E494.37314
G1 X41.97 Y104.207 E494.45161
G1 X41.499 Y103.646 E494.53072
G1 X41.219 Y102.875 E494.61931
G1 X41.219 Y40.34 E501.37309
G1 X41.36 Y39.843 E501.42888
G1 X41.71 Y39.237 E501.50446
G0 F9000 X41.399 Y38.976
G1 F1800 X42.071 Y38.412 E501.59921
G1 X43.005 Y38.087 E501.70602
G1 X84.597 Y38.087 E506.19795
G1 X85.226 Y38.255 E506.26827
G1 X85.938 Y38.665 E506.357
G1 X86.505 Y39.341 E506.45229
G1 X86.829 Y40.269 E506.55845
G1 X86.829 Y102.903 E513.32292
G1 X86.634 Y103.54 E513.39487
G1 X86.249 Y104.207 E513.47804
G1 X85.615 Y104.739 E513.56743
G1 X85.087 Y104.969 E513.62962
G1 X84.312 Y105.097 E513.71446
G1 X43.231 Y105.088 E518.15121
G1 X42.462 Y104.951 E518.23557
G1 X41.71 Y104.519 E518.32923
G1 X41.146 Y103.848 E518.4239
G1 X40.819 Y102.946 E518.52752
G1 X40.819 Y40.28 E525.29544
G1 X41.014 Y39.643 E525.36739
G1 X41.399 Y38.976 E525.45057
G10
G0 F9000 X41.338 Y38.904
G0 X42.023 Y38.329
G0 X42.989 Y37.992
G0 X84.636 Y37.992
G0 X106.7 Y40.655
G11
G1 F1800 X107.471 Y38.146 E525.73404
G1 X108.859 Y35.722 E526.03572
G1 X111.557 Y33.457 E526.41617
G1 X114.858 Y32.308 E526.79366
G1 X158.596 Y32.308 E531.51736
G1 X161.098 Y32.977 E531.79707
G1 X163.737 Y34.486 E532.12539
G1 X165.928 Y37.125 E532.49582
G1 X167.11 Y40.381 E532.86993
G1 X167.11 Y105.564 E539.90969
G1 X165.963 Y108.859 E540.28649
G1 X163.68 Y111.574 E540.6696
G1 X160.667 Y113.31 E541.04515
G1 X157.742 Y113.697 E541.36381
G1 X115.052 Y113.601 E545.97434
G1 X113.059 Y113.248 E546.19293
G1 X110.087 Y111.544 E546.56292
G1 X107.891 Y108.917 E546.93271
G1 X106.7 Y105.639 E547.30938
G1 X106.7 Y40.655 E554.32765
G0 F9000 X107.1 Y40.713
G1 F1800 X107.839 Y38.308 E554.59938
G1 X109.171 Y35.982 E554.88886
G1 X111.757 Y33.811 E555.25352
G1 X114.926 Y32.708 E555.61591
G1 X158.545 Y32.708 E560.32676
G1 X160.945 Y33.35 E560.59508
G1 X163.475 Y34.796 E560.9098
G1 X165.575 Y37.326 E561.2649
G1 X166.71 Y40.452 E561.62407
G1 X166.71 Y105.496 E568.64882
G1 X165.609 Y108.659 E569.01053
G1 X163.421 Y111.261 E569.3777
G1 X160.536 Y112.923 E569.73728
G1 X157.689 Y113.3 E570.04744
G1 X115.122 Y113.207 E574.64469
G1 X113.197 Y112.866 E574.85582
G1 X110.349 Y111.233 E575.21038
G1 X108.243 Y108.714 E575.56499
G1 X107.1 Y105.568 E575.92649
G1 X107.1 Y40.713 E582.93083
G0 F9000 X107.5 Y40.771
G1 F1800 X108.207 Y38.47 E583.1908
G1 X109.483 Y36.242 E583.46809
G1 X111.957 Y34.165 E583.81696
G1 X114.994 Y33.108 E584.16425
G1 X158.494 Y33.108 E588.86225
G1 X160.79 Y33.722 E589.11894
G1 X163.212 Y35.107 E589.42026
G1 X165.223 Y37.529 E589.76025
G1 X166.31 Y40.523 E590.10425
G1 X166.31 Y105.428 E597.11399
G1 X165.255 Y108.459 E597.4606
G1 X163.162 Y110.948 E597.81182
G1 X160.405 Y112.536 E598.15544
G1 X157.636 Y112.903 E598.45711
G1 X115.192 Y112.813 E603.04107
G1 X113.335 Y112.484 E603.24475
G1 X110.611 Y110.922 E603.58388
G1 X108.595 Y108.511 E603.9233
G1 X107.5 Y105.497 E604.26963
G1 X107.5 Y40.771 E611.26004
G0 F9000 X107.9 Y40.829
G1 F1800 X108.575 Y38.632 E611.50826
G1 X109.795 Y36.502 E611.77336
G1 X112.157 Y34.519 E612.10644
G1 X115.062 Y33.508 E612.43863
G1 X158.443 Y33.508 E617.12378
G1 X160.637 Y34.095 E617.36907
G1 X162.95 Y35.417 E617.65679
G1 X164.87 Y37.73 E617.98145
G1 X165.91 Y40.594 E618.31052
G1 X165.91 Y105.36 E625.30525
G1 X164.901 Y108.259 E625.63676
