;FLAVOR:UltiGCode
;TIME:23364
;MATERIAL:53243
;MATERIAL2:0
;NOZZLE_DIAMETER:0.4
;MINX:12.438
;MINY:14.549
;MINZ:0.27
;MAXX:187.263
;MAXY:192.559
;MAXZ:7.02
;TARGET_MACHINE.NAME:Ultimaker 2 Extended+
;Generated with Cura_SteamEngine 5.10.0
G0 F3000 Y50 ;avoid prime blob
M82 ;absolute extrusion mode
G92 E0
G92 E0
G10
;LAYER_COUNT:46
;LAYER:0
M107
G0 F9000 X19.111 Y18.432 Z0.27
;TYPE:SKIRT
G11
G1 F1800 X21.508 Y16.838 E0.31089
G1 X23.753 Y15.779 E0.57897
G1 X27.222 Y14.829 E0.96742
G1 X30.187 Y14.549 E1.28906
G1 X169.519 Y14.549 E16.33692
G1 X172.745 Y14.833 E16.68668
G1 X175.897 Y15.722 E17.04037
G1 X178.961 Y17.29 E17.4121
G1 X180.74 Y18.571 E17.64886
G1 X183.213 Y21.056 E18.02749
G1 X184.915 Y23.445 E18.34428
G1 X186.163 Y26.259 E18.67674
G1 X186.957 Y29.279 E19.01399
G1 X187.263 Y32.215 E19.33279
G1 X186.929 Y35.618 E19.70208
G1 X186.088 Y38.462 E20.02238
G1 X184.712 Y41.321 E20.36505
G1 X183.029 Y43.754 E20.68456
G1 X180.432 Y46.194 E21.06941
G1 X178.906 Y47.263 E21.27063
G1 X174.917 Y49.107 E21.74525
G1 X172.408 Y49.769 E22.02549
G1 X169.521 Y49.959 E22.33796
G1 X157.636 Y49.96 E23.62154
G1 X157.59 Y180.657 E37.73682
G1 X157.371 Y182.304 E37.91626
G1 X156.721 Y184.587 E38.17263
G1 X155.78 Y186.428 E38.39592
G1 X154.53 Y188.227 E38.63251
G1 X152.63 Y189.943 E38.90901
G1 X151.217 Y190.875 E39.09182
G1 X149.497 Y191.688 E39.29729
G1 X147.218 Y192.398 E39.55509
G1 X144.909 Y192.559 E39.80507
G1 X131.801 Y192.528 E41.22073
G1 X129.503 Y192.219 E41.47115
G1 X127.681 Y191.7 E41.67576
G1 X125.434 Y190.48 E41.95189
G1 X123.566 Y189.008 E42.20875
G1 X122.514 Y187.878 E42.37549
G1 X121.443 Y186.329 E42.57887
G1 X120.31 Y183.963 E42.86219
G1 X119.844 Y181.981 E43.08208
G1 X119.674 Y180.399 E43.25392
G1 X119.648 Y162.559 E45.18064
G1 X80.053 Y162.56 E49.4569
G1 X80.015 Y180.657 E51.41138
G1 X79.796 Y182.304 E51.59083
G1 X79.146 Y184.587 E51.84719
G1 X78.205 Y186.428 E52.07048
G1 X76.956 Y188.228 E52.3071
G1 X75.085 Y189.92 E52.57954
G1 X73.675 Y190.856 E52.76232
G1 X71.738 Y191.758 E52.99308
G1 X69.671 Y192.379 E53.22618
G1 X67.334 Y192.559 E53.47932
G1 X54.226 Y192.528 E54.89499
G1 X51.928 Y192.219 E55.14541
G1 X50.106 Y191.7 E55.35001
G1 X47.859 Y190.48 E55.62615
G1 X45.991 Y189.008 E55.883
G1 X44.939 Y187.878 E56.04974
G1 X43.868 Y186.329 E56.25313
G1 X42.735 Y183.963 E56.53644
G1 X42.269 Y181.981 E56.75634
G1 X42.099 Y180.399 E56.92818
G1 X42.072 Y49.957 E71.01591
G1 X29.62 Y49.939 E72.36073
G1 X27.213 Y49.762 E72.62139
G1 X24.237 Y48.914 E72.95559
G1 X21.232 Y47.561 E73.31151
G1 X18.547 Y45.578 E73.672
G1 X16.623 Y43.612 E73.96909
G1 X14.794 Y41.073 E74.30704
G1 X13.538 Y38.24 E74.64172
G1 X12.76 Y35.302 E74.96997
G1 X12.438 Y32.253 E75.30109
G1 X12.845 Y28.753 E75.68164
G1 X13.672 Y25.869 E76.00566
G1 X14.965 Y23.241 E76.32198
G1 X16.723 Y20.787 E76.648
G1 X19.111 Y18.432 E77.01022
G0 F9000 X19.365 Y18.744
G1 F1800 X21.679 Y17.2 E77.31066
G1 X23.924 Y16.141 E77.57874
G1 X27.327 Y15.215 E77.95963
G1 X30.187 Y14.949 E78.26984
G1 X169.519 Y14.949 E93.31769
G1 X172.669 Y15.227 E93.65922
G1 X175.752 Y16.097 E94.00518
G1 X178.727 Y17.615 E94.36589
G1 X180.506 Y18.896 E94.60265
G1 X182.887 Y21.288 E94.96716
G1 X184.565 Y23.644 E95.27954
G1 X185.797 Y26.421 E95.60765
G1 X186.559 Y29.32 E95.93138
G1 X186.861 Y32.217 E96.24595
G1 X186.535 Y35.539 E96.60645
G1 X185.704 Y38.349 E96.92292
G1 X184.383 Y41.093 E97.25183
G1 X182.722 Y43.494 E97.56714
G1 X180.202 Y45.866 E97.9409
G1 X178.676 Y46.935 E98.14212
G1 X174.815 Y48.72 E98.60151
G1 X172.341 Y49.373 E98.87786
G1 X169.521 Y49.559 E99.18308
G1 X157.236 Y49.56 E100.50986
G1 X157.193 Y180.605 E114.66272
G1 X156.986 Y182.194 E114.83578
G1 X156.346 Y184.44 E115.08801
G1 X155.451 Y186.2 E115.30125
G1 X154.227 Y187.962 E115.53296
G1 X152.409 Y189.61 E115.79796
G1 X151.046 Y190.513 E115.97454
G1 X149.326 Y191.326 E116.18001
G1 X147.144 Y192.002 E116.42671
G1 X144.91 Y192.159 E116.66858
G1 X131.802 Y192.128 E118.08425
G1 X129.613 Y191.834 E118.32278
G1 X127.834 Y191.327 E118.52257
G1 X125.625 Y190.128 E118.79402
G1 X123.859 Y188.735 E119.03694
G1 X122.807 Y187.605 E119.20368
G1 X121.804 Y186.156 E119.394
G1 X120.689 Y183.827 E119.67287
G1 X120.242 Y181.938 E119.88252
G1 X120.072 Y180.356 E120.05436
G1 X120.047 Y162.159 E122.01964
G1 X79.654 Y162.16 E126.38208
G1 X79.618 Y180.605 E128.37415
G1 X79.411 Y182.194 E128.54721
G1 X78.771 Y184.44 E128.79943
G1 X77.876 Y186.2 E129.01268
G1 X76.653 Y187.963 E129.24441
G1 X74.817 Y189.623 E129.51173
G1 X73.506 Y190.493 E129.68166
G1 X71.569 Y191.395 E129.91242
G1 X69.6 Y191.983 E130.13435
G1 X67.335 Y192.159 E130.37971
G1 X54.227 Y192.128 E131.79538
G1 X52.038 Y191.834 E132.03391
G1 X50.259 Y191.327 E132.2337
G1 X48.05 Y190.128 E132.50515
G1 X46.284 Y188.735 E132.74807
G1 X45.232 Y187.605 E132.91481
G1 X44.229 Y186.156 E133.10513
G1 X43.114 Y183.827 E133.384
G1 X42.667 Y181.938 E133.59365
G1 X42.497 Y180.356 E133.76549
G1 X42.472 Y49.558 E147.89167
G1 X29.649 Y49.54 E149.27656
G1 X27.284 Y49.366 E149.53267
G1 X24.401 Y48.549 E149.85629
G1 X21.436 Y47.214 E150.20748
G1 X18.785 Y45.256 E150.56341
G1 X16.948 Y43.378 E150.84713
G1 X15.143 Y40.872 E151.18068
G1 X13.904 Y38.078 E151.51077
G1 X13.158 Y35.26 E151.8256
G1 X12.84 Y32.253 E152.15216
G1 X13.23 Y28.863 E152.5207
G1 X14.047 Y26.013 E152.8409
G1 X15.324 Y23.418 E153.15325
G1 X17.004 Y21.072 E153.46489
G1 X19.365 Y18.744 E153.82298
G0 F9000 X19.62 Y19.055
G1 F1800 X21.85 Y17.562 E154.11282
G1 X24.095 Y16.503 E154.3809
G1 X27.431 Y15.601 E154.75412
G1 X30.187 Y15.349 E155.05301
G1 X169.519 Y15.349 E170.10087
G1 X172.593 Y15.621 E170.43416
G1 X175.609 Y16.472 E170.7726
G1 X178.493 Y17.94 E171.12211
G1 X180.272 Y19.221 E171.35886
G1 X182.561 Y21.52 E171.70924
G1 X184.215 Y23.843 E172.01722
G1 X185.431 Y26.583 E172.34097
G1 X186.161 Y29.361 E172.65118
G1 X186.459 Y32.219 E172.96152
G1 X186.141 Y35.46 E173.31323
G1 X185.32 Y38.236 E173.62587
G1 X184.054 Y40.865 E173.94101
G1 X182.417 Y43.231 E174.25174
G1 X179.972 Y45.538 E174.61479
G1 X178.446 Y46.607 E174.81601
G1 X174.713 Y48.333 E175.26019
G1 X172.274 Y48.977 E175.53263
G1 X169.521 Y49.159 E175.8306
G1 X156.836 Y49.16 E177.20058
G1 X156.796 Y180.554 E191.39113
G1 X156.601 Y182.084 E191.55771
G1 X155.971 Y184.294 E191.8059
G1 X155.122 Y185.972 E192.009
G1 X153.924 Y187.697 E192.23582
G1 X152.187 Y189.277 E192.48941
G1 X150.875 Y190.151 E192.65967
G1 X149.155 Y190.964 E192.86514
G1 X147.071 Y191.606 E193.10065
G1 X144.911 Y191.759 E193.33451
G1 X131.803 Y191.728 E194.75018
G1 X129.723 Y191.449 E194.97683
G1 X127.984 Y190.954 E195.1721
G1 X125.872 Y189.813 E195.43136
G1 X124.152 Y188.462 E195.66757
G1 X123.1 Y187.332 E195.83431
G1 X122.165 Y185.983 E196.01158
G1 X121.068 Y183.691 E196.286
G1 X120.64 Y181.895 E196.4854
G1 X120.47 Y180.313 E196.65724
G1 X120.447 Y161.759 E198.66108
G1 X79.255 Y161.76 E203.10981
G1 X79.221 Y180.554 E205.13957
G1 X79.026 Y182.084 E205.30614
G1 X78.396 Y184.294 E205.55433
G1 X77.547 Y185.972 E205.75743
G1 X76.35 Y187.698 E205.98428
G1 X74.549 Y189.326 E206.24648
G1 X73.337 Y190.13 E206.40356
G1 X71.4 Y191.032 E206.63432
G1 X69.529 Y191.587 E206.84509
G1 X67.336 Y191.759 E207.08266
G1 X54.228 Y191.728 E208.49833
G1 X52.148 Y191.449 E208.72498
G1 X50.409 Y190.954 E208.92026
G1 X48.297 Y189.813 E209.17951
G1 X46.577 Y188.462 E209.41572
G1 X45.525 Y187.332 E209.58246
G1 X44.59 Y185.983 E209.75973
G1 X43.493 Y183.691 E210.03416
G1 X43.065 Y181.895 E210.23356
G1 X42.895 Y180.313 E210.4054
G1 X42.872 Y49.159 E224.57003
G1 X29.678 Y49.141 E225.99498
G1 X27.354 Y48.97 E226.24665
G1 X24.565 Y48.184 E226.5596
G1 X21.64 Y46.867 E226.90604
G1 X19.023 Y44.934 E227.25742
G1 X17.273 Y43.144 E227.52778
G1 X15.492 Y40.671 E227.85691
G1 X14.27 Y37.916 E228.18241
G1 X13.556 Y35.218 E228.48383
G1 X13.242 Y32.252 E228.80594
G1 X13.615 Y28.973 E229.16236
G1 X14.422 Y26.157 E229.47873
G1 X15.683 Y23.595 E229.78712
G1 X17.285 Y21.357 E230.08437
G1 X19.62 Y19.055 E230.4385
G0 F9000 X19.875 Y19.365
G1 F1800 X22.021 Y17.924 E230.71767
G1 X24.266 Y16.865 E230.98575
G1 X27.468 Y15.999 E231.34399
G1 X30.187 Y15.749 E231.63888
G1 X169.519 Y15.749 E246.68674
G1 X172.517 Y16.015 E247.01179
G1 X175.462 Y16.846 E247.34227
G1 X178.259 Y18.265 E247.681
G1 X180.038 Y19.546 E247.91776
G1 X182.235 Y21.752 E248.25401
G1 X183.865 Y24.042 E248.55758
G1 X185.065 Y26.745 E248.87698
G1 X185.763 Y29.402 E249.17367
G1 X186.057 Y32.221 E249.47977
G1 X185.747 Y35.381 E249.82269
G1 X184.936 Y38.123 E250.13151
G1 X183.725 Y40.637 E250.43288
G1 X182.112 Y42.968 E250.73902
G1 X179.742 Y45.21 E251.09137
G1 X178.216 Y46.279 E251.29259
G1 X174.611 Y47.946 E251.72154
G1 X172.207 Y48.581 E251.99008
G1 X169.521 Y48.759 E252.2808
G1 X156.436 Y48.76 E253.69398
G1 X156.399 Y180.505 E267.92244
G1 X156.216 Y181.974 E268.08232
G1 X155.596 Y184.15 E268.32668
G1 X154.793 Y185.744 E268.51944
G1 X153.62 Y187.433 E268.74153
G1 X151.964 Y188.945 E268.98371
G1 X150.704 Y189.789 E269.1475
G1 X148.984 Y190.602 E269.35297
G1 X146.999 Y191.21 E269.57718
G1 X144.912 Y191.359 E269.80315
G1 X131.804 Y191.328 E271.21882
G1 X129.833 Y191.064 E271.43359
G1 X128.134 Y190.58 E271.62438
G1 X126.062 Y189.461 E271.8787
G1 X124.445 Y188.189 E272.1009
G1 X123.393 Y187.059 E272.26764
G1 X122.526 Y185.81 E272.43184
G1 X121.447 Y183.555 E272.70183
G1 X121.038 Y181.852 E272.89098
G1 X120.868 Y180.27 E273.06282
G1 X120.847 Y161.359 E275.10521
G1 X78.856 Y161.36 E279.64024
G1 X78.824 Y180.505 E281.7079
G1 X78.641 Y181.974 E281.86778
G1 X78.021 Y184.15 E282.11214
G1 X77.218 Y185.744 E282.3049
G1 X76.047 Y187.433 E282.52687
G1 X74.281 Y189.029 E282.78394
G1 X73.167 Y189.768 E282.92832
G1 X71.286 Y190.648 E283.1526
G1 X69.454 Y191.191 E283.35896
G1 X67.337 Y191.359 E283.58832
G1 X54.229 Y191.328 E285.00399
G1 X52.258 Y191.064 E285.21876
G1 X50.559 Y190.58 E285.40955
G1 X48.487 Y189.461 E285.66387
G1 X46.87 Y188.189 E285.88607
G1 X45.818 Y187.059 E286.05281
G1 X44.951 Y185.81 E286.21701
G1 X43.872 Y183.555 E286.487
G1 X43.463 Y181.852 E286.67615
G1 X43.293 Y180.27 E286.84799
G1 X43.272 Y48.759 E301.05118
G1 X29.707 Y48.742 E302.5162
G1 X27.423 Y48.574 E302.76354
G1 X24.729 Y47.819 E303.0657
G1 X21.842 Y46.519 E303.40765
G1 X19.309 Y44.654 E303.74737
G1 X17.598 Y42.91 E304.01123
G1 X15.841 Y40.47 E304.33596
G1 X14.636 Y37.754 E304.65686
G1 X13.954 Y35.176 E304.94486
G1 X13.645 Y32.255 E305.26209
G1 X14 Y29.083 E305.6068
G1 X14.797 Y26.301 E305.91935
G1 X16.042 Y23.772 E306.22378
G1 X17.566 Y21.642 E306.50664
G1 X19.875 Y19.365 E306.85687
G0 F9000 X20.128 Y19.677
G1 F1800 X22.192 Y18.286 E307.12568
G1 X24.437 Y17.227 E307.39376
G1 X27.505 Y16.397 E307.73702
G1 X30.187 Y16.149 E308.02791
G1 X169.519 Y16.149 E323.07576
G1 X172.442 Y16.41 E323.3927
G1 X175.317 Y17.221 E323.71532
G1 X178.025 Y18.59 E324.04303
G1 X179.804 Y19.871 E324.27979
G1 X181.909 Y21.984 E324.60191
G1 X183.515 Y24.241 E324.90108
G1 X184.699 Y26.907 E325.21612
G1 X185.365 Y29.444 E325.4994
G1 X185.655 Y32.224 E325.80127
G1 X185.353 Y35.302 E326.13529
G1 X184.552 Y38.01 E326.44028
G1 X183.396 Y40.409 E326.72789
G1 X181.805 Y42.708 E327.02984
G1 X179.512 Y44.882 E327.37109
G1 X177.986 Y45.951 E327.57232
G1 X174.509 Y47.559 E327.98604
G1 X172.141 Y48.185 E328.25057
G1 X169.521 Y48.359 E328.53416
G1 X156.036 Y48.36 E329.99054
G1 X156.002 Y180.457 E344.25701
G1 X155.831 Y181.864 E344.41009
G1 X155.221 Y184.005 E344.65052
G1 X154.464 Y185.516 E344.83304
G1 X153.316 Y187.169 E345.05039
G1 X151.694 Y188.65 E345.28761
G1 X150.533 Y189.427 E345.43848
G1 X148.813 Y190.24 E345.64395
G1 X146.925 Y190.814 E345.85707
G1 X144.913 Y190.959 E346.07493
G1 X131.805 Y190.928 E347.4906
G1 X129.943 Y190.679 E347.69348
G1 X128.282 Y190.206 E347.88
G1 X126.309 Y189.146 E348.12189
G1 X124.738 Y187.916 E348.33738
G1 X123.686 Y186.786 E348.50412
G1 X122.887 Y185.637 E348.65526
G1 X121.826 Y183.42 E348.92071
G1 X121.436 Y181.809 E349.09972
G1 X121.266 Y180.227 E349.27156
G1 X121.247 Y160.959 E351.35251
G1 X78.457 Y160.96 E355.97383
G1 X78.427 Y180.457 E358.0795
G1 X78.256 Y181.864 E358.23258
G1 X77.646 Y184.005 E358.47301
G1 X76.889 Y185.516 E358.65553
G1 X75.744 Y187.168 E358.87261
G1 X74.059 Y188.696 E359.11827
G1 X72.997 Y189.406 E359.25624
G1 X71.172 Y190.264 E359.47404
G1 X69.379 Y190.795 E359.67599
G1 X67.338 Y190.959 E359.89713
G1 X54.23 Y190.928 E361.3128
G1 X52.368 Y190.679 E361.51569
G1 X50.707 Y190.206 E361.70221
G1 X48.734 Y189.146 E361.94409
G1 X47.163 Y187.916 E362.15958
G1 X46.111 Y186.786 E362.32632
G1 X45.312 Y185.637 E362.47747
G1 X44.251 Y183.42 E362.74291
G1 X43.861 Y181.809 E362.92192
G1 X43.691 Y180.227 E363.09376
G1 X43.672 Y48.359 E377.33551
G1 X29.736 Y48.343 E378.8406
G1 X27.49 Y48.178 E379.08382
G1 X24.893 Y47.454 E379.37499
G1 X22.044 Y46.171 E379.71244
G1 X19.594 Y44.373 E380.04065
G1 X17.923 Y42.676 E380.29786
G1 X16.19 Y40.269 E380.61819
G1 X15.002 Y37.592 E380.93449
G1 X14.352 Y35.134 E381.20908
G1 X14.048 Y32.257 E381.52153
G1 X14.385 Y29.193 E381.85444
G1 X15.172 Y26.445 E382.16315
G1 X16.401 Y23.949 E382.46363
G1 X17.847 Y21.927 E382.7321
G1 X20.128 Y19.677 E383.07813
G0 F9000 X20.385 Y19.986
G1 F1800 X22.363 Y18.648 E383.33603
G1 X24.608 Y17.589 E383.60412
G1 X27.542 Y16.795 E383.93239
G1 X30.187 Y16.549 E384.21928
G1 X169.519 Y16.549 E399.26713
G1 X172.367 Y16.804 E399.57595
G1 X175.173 Y17.596 E399.89084
G1 X177.791 Y18.915 E400.20744
G1 X179.57 Y20.196 E400.4442
G1 X181.583 Y22.216 E400.75219
G1 X183.167 Y24.442 E401.04725
G1 X184.312 Y27.009 E401.35082
G1 X184.967 Y29.486 E401.62753
G1 X185.253 Y32.227 E401.92516
G1 X184.959 Y35.223 E402.25028
G1 X184.168 Y37.897 E402.55145
G1 X183.067 Y40.181 E402.82528
G1 X181.5 Y42.446 E403.12274
G1 X179.282 Y44.554 E403.45321
G1 X177.756 Y45.623 E403.65443
G1 X174.407 Y47.172 E404.05294
G1 X172.074 Y47.789 E404.31357
G1 X169.521 Y47.959 E404.5899
G1 X155.636 Y47.96 E406.08948
G1 X155.605 Y180.41 E420.39408
G1 X155.446 Y181.754 E420.54025
G1 X154.845 Y183.862 E420.77698
G1 X154.135 Y185.288 E420.94902
G1 X153.012 Y186.905 E421.16164
G1 X151.424 Y188.355 E421.39389
G1 X150.361 Y189.066 E421.53201
G1 X148.697 Y189.857 E421.73099
G1 X146.851 Y190.418 E421.93936
G1 X144.914 Y190.559 E422.14911
G1 X131.806 Y190.528 E423.56478
G1 X130.053 Y190.294 E423.75578
G1 X128.431 Y189.832 E423.93792
G1 X126.555 Y188.83 E424.16762
G1 X125.031 Y187.643 E424.37625
G1 X123.979 Y186.513 E424.54299
G1 X123.248 Y185.464 E424.68107
G1 X122.205 Y183.286 E424.94188
G1 X121.834 Y181.766 E425.11086
G1 X121.664 Y180.184 E425.2827
G1 X121.647 Y160.559 E427.4022
G1 X78.058 Y160.56 E432.10981
G1 X78.03 Y180.41 E434.25361
G1 X77.871 Y181.754 E434.39978
G1 X77.27 Y183.862 E434.63651
G1 X76.56 Y185.288 E434.80855
G1 X75.44 Y186.903 E435.02081
G1 X73.837 Y188.363 E435.25498
G1 X72.775 Y189.073 E435.39295
G1 X71.059 Y189.88 E435.59775
G1 X69.305 Y190.399 E435.7953
G1 X67.339 Y190.559 E436.00833
G1 X54.231 Y190.528 E437.424
G1 X52.478 Y190.294 E437.615
G1 X50.856 Y189.832 E437.79714
G1 X48.98 Y188.83 E438.02684
G1 X47.456 Y187.643 E438.23547
G1 X46.404 Y186.513 E438.40221
G1 X45.673 Y185.464 E438.54029
G1 X44.63 Y183.286 E438.8011
G1 X44.259 Y181.766 E438.97008
G1 X44.089 Y180.184 E439.14192
G1 X44.072 Y47.959 E453.42222
G1 X29.765 Y47.944 E454.96737
G1 X27.562 Y47.782 E455.20594
G1 X25.057 Y47.089 E455.48664
G1 X22.249 Y45.824 E455.81926
G1 X19.831 Y44.05 E456.14315
G1 X18.248 Y42.442 E456.38684
G1 X16.539 Y40.068 E456.70276
G1 X15.368 Y37.43 E457.01447
G1 X14.75 Y35.092 E457.27565
G1 X14.451 Y32.258 E457.58342
G1 X14.77 Y29.303 E457.90441
G1 X15.547 Y26.589 E458.2093
G1 X16.76 Y24.126 E458.50581
G1 X18.128 Y22.212 E458.7599
G1 X20.385 Y19.986 E459.10226
G0 F9000 X20.64 Y20.297
G1 F1800 X22.534 Y19.01 E459.34957
G1 X24.779 Y17.951 E459.61765
G1 X27.646 Y17.181 E459.93826
G1 X30.187 Y16.949 E460.21383
G1 X169.519 Y16.949 E475.26169
G1 X172.292 Y17.198 E475.56237
G1 X175.031 Y17.972 E475.86977
G1 X177.557 Y19.24 E476.17502
G1 X179.336 Y20.521 E476.41178
G1 X181.257 Y22.448 E476.70564
G1 X182.818 Y24.641 E476.99636
G1 X183.925 Y27.112 E477.28879
G1 X184.569 Y29.528 E477.55882
G1 X184.851 Y32.23 E477.85222
